X:1
T:Title
%%score [ ( 1 2 ) ( 3 4 ) ] { ( 5 6 ) | 7 }
L:1/8
Q:1/4=120
M:4/4
K:F
V:1 treble nm="Midi_74"
V:2 treble 
V:3 bass nm="Midi_74"
V:4 bass 
V:5 treble nm="Org."
V:6 treble 
V:7 bass 
V:1
 (F6 A2) | d4 (e2 ^c2) | d8 || !courtesy!=c8 | B4 A4 | G4 (f2 ed) |{d} ^c8 || (e6 ^c2) | %8
 A4 (=B2 ^c2) | d8 || !courtesy!=c8 | B4 G4 |"^John Camidge\n(1790-1859)" F4 E4 | D8 |] %14
V:2
 (D6 F2) | A4 G4 | F8 || A8 | G4 F4 | G4 ^G4 | A8 || (^C6 E2) | E4 E4 | D8 || ^F8 | G4 E4 | %12
 D4 ^C4 | D8 |] %14
V:3
 (A,6 D2) | F4 E4 | D8 || D8 | D4 D4 | D4 D4 | E8 || E8 | ^C4 A,4 | A,8 || A,8 | B,4 D4 | A,4 G,4 | %13
 F,8 |] %14
V:4
 D,8 | F,4 A,4 | D,8 || ^F,8 | G,4 A,4 | B,4 B,,4 | A,,8 || A,,8 | A,4 G,4 | ^F,8 || D,8 | %11
 G,4 B,4 | A,4 A,,4 | D,8 |] %14
V:5
 [DF]6 [DFA]2 | [DFAd]4 e2 ^c2 | d8 || !courtesy!=c8 | [DGB]4 [DFA]4 | [DG]4 f2 ed |{d} ^c8 || %7
 [^ce]6 c2 | [^CEA]4 =B2 ^c2 | d8 || c8 | [DGB]4 [G,EG]4 | [A,DF]4 [G,A,^CE]4 | D8 |] %14
V:6
 x8 | x4 [EGA]4 | [DFA]8 || [DA]8 | x8 | x4 ^G4 | A8 || [EA]8 | x4 [EA]4 | [DA]8 || [D^FA]8 | x8 | %12
 x8 | D8 |] %14
V:7
 [D,,D,]8 | [F,,F,]4 [A,,A,]4 | [D,A,]8 || [^F,,^F,]8 | [G,,G,]4 [A,,A,]4 | [B,,B,]8 | [A,,A,]8 || %7
 [A,,A,]8 | [A,,A,]4 [G,,G,]4 | [^F,,^F,]8 || [D,,D,]8 | [G,,D,]4"^8 vi" B,,4 | A,,4 A,,4 | %13
 [D,,D,F,A,]8 |] %14

